@extra/phlat-icons/symbolic/help-browser.svg

<?xml version="1.0" encoding="UTF-8" standalone="no"?>
<svg
   xmlns:dc="http://purl.org/dc/elements/1.1/"
   xmlns:cc="http://creativecommons.org/ns#"
   xmlns:rdf="http://www.w3.org/1999/02/22-rdf-syntax-ns#"
   xmlns:svg="http://www.w3.org/2000/svg"
   xmlns="http://www.w3.org/2000/svg"
   id="svg7384"
   version="1.1"
   height="16"
   width="16">
  <metadata
     id="metadata90">
    <rdf:RDF>
      <cc:Work
         rdf:about="">
        <dc:format>image/svg+xml</dc:format>
        <dc:type
           rdf:resource="http://purl.org/dc/dcmitype/StillImage" />
        <dc:title>Gnome Symbolic Icon Theme</dc:title>
      </cc:Work>
    </rdf:RDF>
  </metadata>
  <title
     id="title9167">Gnome Symbolic Icon Theme</title>
  <defs
     id="defs7386" />
  <g
     transform="translate(-182,-490)"
     id="layer9"
     style="display:inline" />
  <g
     transform="translate(-182,-490)"
     id="layer10" />
  <g
     transform="translate(-182,-490)"
     id="layer11">
    <path
       id="rect11749-5-0-3"
       transform="translate(182,490)"
       d="M 8 0 C 3.5853 0 0 3.5853 0 8 C 0 12.4147 3.5853 16 8 16 C 12.4147 16 16 12.4147 16 8 C 16 3.5853 12.4147 0 8 0 z M 8.2695312 1.0136719 C 10.742684 1.1072987 12.880175 2.4682268 14.054688 4.4726562 L 10.449219 6.2753906 A 3.0000014 3 0 0 0 8 5 A 3.0000014 3 0 0 0 7.5390625 5.0371094 L 8.2695312 1.0136719 z M 1.9453125 4.4726562 L 5.5488281 6.2734375 A 3.0000014 3 0 0 0 5 8 A 3.0000014 3 0 0 0 5.5507812 9.7246094 L 1.9277344 11.537109 C 1.3881962 10.605922 1.0607359 9.5391837 1 8.3984375 L 1 7.640625 C 1.0613798 6.4877852 1.3956066 5.4107883 1.9453125 4.4726562 z M 8 6 A 2 2 0 0 1 10 8 A 2 2 0 0 1 8 10 A 2 2 0 0 1 6 8 A 2 2 0 0 1 8 6 z M 10.451172 9.7265625 L 14.072266 11.537109 C 12.902766 13.555545 10.759328 14.928711 8.2773438 15.025391 L 7.5390625 10.958984 A 3.0000014 3 0 0 0 8 11 A 3.0000014 3 0 0 0 10.451172 9.7265625 z "
       style="color:#f1f2f2;font-style:normal;font-variant:normal;font-weight:normal;font-stretch:normal;font-size:medium;line-height:normal;font-family:'Bitstream Vera Sans';-inkscape-font-specification:'Bitstream Vera Sans';text-indent:0;text-align:start;text-decoration:none;text-decoration-line:none;letter-spacing:normal;word-spacing:normal;text-transform:none;writing-mode:lr-tb;direction:ltr;text-anchor:start;display:inline;overflow:visible;visibility:visible;fill:#f1f2f2;fill-opacity:1;stroke:none;stroke-width:2;marker:none;enable-background:accumulate" />
  </g>
  <g
     transform="translate(-182,-490)"
     id="layer12" />
  <g
     transform="translate(-182,-490)"
     id="layer13" />
  <g
     transform="translate(-182,-490)"
     id="layer14" />
  <g
     transform="translate(-182,-490)"
     id="layer15"
     style="display:inline" />
  <g
     transform="translate(-182,-490)"
     id="g4953"
     style="display:inline" />
</svg>

<svg xmlns="http://www.w3.org/2000/svg" viewBox="0 0 16 16">
    <path d="M8 0C3.585 0 0 3.585 0 8s3.585 8 8 8 8-3.585 8-8-3.585-8-8-8zm.27 1.014a6.997 6.997 0 0 1 5.785 3.459l-3.606 1.802A3 3 0 0 0 8 5a3 3 0 0 0-.46.037l.73-4.023zM1.945 4.473l3.604 1.8A3 3 0 0 0 5 8a3 3 0 0 0 .55 1.725l-3.622 1.812A6.981 6.981 0 0 1 1 8.398v-.757a6.98 6.98 0 0 1 .945-3.168zM8 6a2 2 0 0 1 2 2 2 2 0 0 1-2 2 2 2 0 0 1-2-2 2 2 0 0 1 2-2zm2.451 3.727l3.621 1.81a6.998 6.998 0 0 1-5.795 3.488L7.54 10.96A3 3 0 0 0 8 11a3 3 0 0 0 2.451-1.273z" style="line-height:normal;-inkscape-font-specification:'Bitstream Vera Sans';text-indent:0;text-align:start;text-decoration-line:none;text-transform:none;marker:none" color="#f1f2f2" font-weight="400" font-family="Bitstream Vera Sans" overflow="visible" fill="#f1f2f2"/>
</svg>
